X: 34152
T: Reel Eugène
R: reel
M: 4/4
K: Bminor
|:"Bm"B2Bc dcB2|"Em"e2ef gece|"F#7"f2fg fede|fbbf b2b2|
"Bm"B2Bc dcB2|"Em"e2ef gece|"F#7"f2fg fedc|1 "Bm"B4 "F#7"F4:|2 "G"B4 "A7"A4||
|:"D"f2fe d2dB|AAdf b2f2|"Em"a3g e2 cB|"A7"Aceg fdde|
"D"f2fe d2dB|AAdf b2f2|"Em"a3g eece|1 "A7"fdec "D"d3e:|2 "A7"fdec "D"d4||

